src/icons/css3.svg

<svg width="64" height="64" viewBox="0 0 64 64" fill="none" xmlns="http://www.w3.org/2000/svg">
<path d="M5.94629 2.04736L10.6994 55.8779L32.0433 61.8594L53.379 55.8816L58.1405 2.04736H5.94629V2.04736Z" fill="#2299F8"/>
<path d="M47.9773 19.6508L47.3772 26.4131L45.5647 46.6862L32.0432 50.4355L32.0314 50.4389L18.5165 46.6862L17.5739 36.0841H24.1949L24.6872 41.5831L32.0353 43.5716L32.0389 43.5682L39.3983 41.5792L40.4012 32.4167L17.2569 32.4807L16.6005 26.2151L40.956 25.9268L41.4489 19.2208L15.9483 19.2923L15.5195 13.0532H48.5657L47.9773 19.6508Z" fill="#FCFCFC"/>
</svg>

<svg xmlns="http://www.w3.org/2000/svg" fill="none" viewBox="0 0 64 64"><defs/><path fill="#2299F8" d="M5.95 2.05l4.75 53.83 21.34 5.98 21.34-5.98 4.76-53.83H5.94z"/><path fill="#FCFCFC" d="M47.98 19.65l-.6 6.76-1.82 20.28-13.52 3.75-13.52-3.75-.95-10.6h6.62l.5 5.5 7.35 1.98 7.36-2 1-9.15-23.14.06-.66-6.26 24.36-.3.49-6.7-25.5.07-.43-6.24h33.05l-.6 6.6z"/></svg>
